icon-themes/breeze_svg/cmd/lc_dsbrowserexplorer.svg

<svg viewBox="0 0 24 24" xmlns="http://www.w3.org/2000/svg"><path d="m4 4v16h1 15v-1-15h-1-14zm1 4h14v11h-14zm10 2-3 1c-1.047198 0-2 .9528-2 2l-1 3 3-1c1.047198 0 2-.9528 2-2zm-3 2c.523599 0 1 .4764 1 1s-.476401 1-1 1-1-.4764-1-1 .476401-1 1-1z" fill="#4d4d4d"/></svg>

<svg xmlns="http://www.w3.org/2000/svg" viewBox="0 0 24 24">
 <path 
     style="fill:#4d4d4d" 
     d="M 4 4 L 4 20 L 5 20 L 20 20 L 20 19 L 20 4 L 19 4 L 5 4 L 4 4 z M 5 8 L 19 8 L 19 19 L 5 19 L 5 8 z M 15 10 L 12 11 C 10.952802 11 10 11.9528 10 13 L 9 16 L 12 15 C 13.047198 15 14 14.0472 14 13 L 15 10 z M 12 12 C 12.523599 12 13 12.4764 13 13 C 13 13.5236 12.523599 14 12 14 C 11.476401 14 11 13.5236 11 13 C 11 12.4764 11.476401 12 12 12 z "
     />
 </svg>
